packages/elvis-assets-icons/icons/svg/src/worker-color.svg

<svg width="24" height="24" viewBox="0 0 24 24" fill="none" xmlns="http://www.w3.org/2000/svg">
<path fill-rule="evenodd" clip-rule="evenodd" d="M6.59716 5.9259C6.98978 5.9259 7.30806 6.25754 7.30806 6.66664C7.30806 9.2114 9.25587 11.1605 11.6209 11.1605C13.9771 11.1605 15.9337 9.12174 15.9337 6.66664C15.9337 6.25754 16.2519 5.9259 16.6446 5.9259C17.0372 5.9259 17.3555 6.25754 17.3555 6.66664C17.3555 9.93993 14.7623 12.6419 11.6209 12.6419C8.48821 12.6419 5.88626 10.0478 5.88626 6.66664C5.88626 6.25754 6.20454 5.9259 6.59716 5.9259Z" fill="black"/>
<path fill-rule="evenodd" clip-rule="evenodd" d="M12 14.4197C7.2646 14.4197 3.4218 18.3448 3.4218 23.2592C3.4218 23.6683 3.10352 23.9999 2.7109 23.9999C2.31828 23.9999 2 23.6683 2 23.2592C2 17.5069 6.49844 12.9382 12 12.9382C17.5064 12.9382 22 17.6106 22 23.2592C22 23.6683 21.6817 23.9999 21.2891 23.9999C20.8965 23.9999 20.5782 23.6683 20.5782 23.2592C20.5782 18.4387 16.7306 14.4197 12 14.4197Z" fill="black"/>
<path fill-rule="evenodd" clip-rule="evenodd" d="M7.84727 14.0997C8.09545 13.7827 8.54327 13.7353 8.8475 13.9939L12 16.6737L15.1525 13.9939C15.4568 13.7353 15.9046 13.7827 16.1528 14.0997C16.4009 14.4167 16.3555 14.8833 16.0513 15.1419L12.4494 18.2036C12.1878 18.426 11.8122 18.426 11.5506 18.2036L7.94874 15.1419C7.64451 14.8833 7.59908 14.4167 7.84727 14.0997Z" fill="black"/>
<path fill-rule="evenodd" clip-rule="evenodd" d="M6.218 15.0122C6.61061 15.0122 6.9289 15.3438 6.9289 15.7529V23.2591C6.9289 23.6682 6.61061 23.9998 6.218 23.9998C5.82538 23.9998 5.5071 23.6682 5.5071 23.2591V15.7529C5.5071 15.3438 5.82538 15.0122 6.218 15.0122Z" fill="black"/>
<path fill-rule="evenodd" clip-rule="evenodd" d="M17.5924 15.0122C17.985 15.0122 18.3033 15.3438 18.3033 15.7529V23.2591C18.3033 23.6682 17.985 23.9998 17.5924 23.9998C17.1997 23.9998 16.8815 23.6682 16.8815 23.2591V15.7529C16.8815 15.3438 17.1997 15.0122 17.5924 15.0122Z" fill="black"/>
<path fill-rule="evenodd" clip-rule="evenodd" d="M9.89492 0.700954C10.2824 0.635035 10.6478 0.908904 10.7111 1.31266L11.4694 6.15215C11.5326 6.5559 11.2698 6.93665 10.8823 7.00257C10.4948 7.06849 10.1294 6.79462 10.0662 6.39086L9.30786 1.55137C9.2446 1.14762 9.50743 0.766873 9.89492 0.700954Z" fill="#29D305"/>
<path fill-rule="evenodd" clip-rule="evenodd" d="M13.4123 0.941237C13.4123 0.941237 14.3363 0.993372 14.2654 1.39574L13.4123 6.23523C13.3414 6.6376 12.9708 6.90387 12.5847 6.82997C12.1985 6.75607 11.943 6.36997 12.0139 5.9676L12.867 1.12811C12.9379 0.72574 13.4123 0.941237 13.4123 0.941237Z" fill="#29D305"/>
<path fill-rule="evenodd" clip-rule="evenodd" d="M4.84366 6.27174C4.84366 5.86265 5.16194 5.53101 5.55456 5.53101H18.3508C18.7434 5.53101 19.0617 5.86265 19.0617 6.27174C19.0617 6.68084 18.7434 7.01248 18.3508 7.01248H5.55456C5.16194 7.01248 4.84366 6.68084 4.84366 6.27174Z" fill="#29D305"/>
<path fill-rule="evenodd" clip-rule="evenodd" d="M11.9999 16.8889C12.3926 16.8889 12.7108 17.2206 12.7108 17.6297V23.2593C12.7108 23.6684 12.3926 24 11.9999 24C11.6073 24 11.289 23.6684 11.289 23.2593V17.6297C11.289 17.2206 11.6073 16.8889 11.9999 16.8889Z" fill="black"/>
<path fill-rule="evenodd" clip-rule="evenodd" d="M10.235 2.01103C10.1146 2.1458 9.97001 2.24152 9.81559 2.31047L9.81143 2.31233C8.28315 2.98282 7.30806 4.48517 7.30806 6.37036C7.30806 6.77945 6.98978 6.66665 6.59716 6.66665C6.20454 6.66665 5.88626 6.77945 5.88626 6.37036C5.88626 3.94944 7.14459 1.92283 9.16024 0.99171C9.18625 0.905524 9.23338 0.772702 9.32958 0.636025C9.5408 0.335908 9.85795 0.192994 10.194 0.114959C10.5298 0.0369842 10.9884 0 11.6209 0C12.2556 0 12.721 0.0373715 13.0671 0.112987C13.4124 0.188431 13.7174 0.318433 13.9415 0.568652C14.0522 0.692231 14.1178 0.817497 14.16 0.915851C14.1733 0.94673 14.1846 0.975892 14.1935 0.999736C16.2162 1.94389 17.3555 3.98172 17.3555 6.37036C17.3555 6.77945 16.9424 6.66665 16.5498 6.66665C16.1572 6.66665 15.9337 6.77945 15.9337 6.37036C15.9337 4.45886 15.0314 2.97318 13.5251 2.31232C13.5109 2.30608 13.4968 2.29936 13.483 2.29216C13.1447 2.11591 12.9928 1.8579 12.9098 1.64832C12.9012 1.62667 12.894 1.60833 12.8879 1.5929C12.862 1.58429 12.8253 1.57386 12.7753 1.56293C12.5705 1.51818 12.2183 1.48148 11.6209 1.48148C11.0211 1.48148 10.6859 1.51857 10.5033 1.56096C10.495 1.56289 10.4872 1.56477 10.48 1.56661C10.4749 1.58328 10.469 1.6012 10.4625 1.61977C10.4233 1.7317 10.3573 1.87403 10.235 2.01103ZM12.9419 1.61472L12.9409 1.61415L12.9419 1.61472Z" fill="#29D305"/>
</svg>

<svg width="24" height="24" fill="none" xmlns="http://www.w3.org/2000/svg"><path fill-rule="evenodd" clip-rule="evenodd" d="M6.597 5.926c.393 0 .711.332.711.74 0 2.545 1.948 4.495 4.313 4.495 2.356 0 4.313-2.04 4.313-4.494 0-.41.318-.741.71-.741.393 0 .712.332.712.74 0 3.274-2.594 5.976-5.735 5.976-3.133 0-5.735-2.594-5.735-5.975 0-.41.319-.741.711-.741zM12 14.42c-4.735 0-8.578 3.925-8.578 8.84 0 .408-.318.74-.711.74-.393 0-.711-.332-.711-.74 0-5.753 4.498-10.322 10-10.322 5.506 0 10 4.673 10 10.321 0 .41-.318.74-.71.74-.393 0-.712-.33-.712-.74 0-4.82-3.847-8.84-8.578-8.84z" fill="#000"/><path fill-rule="evenodd" clip-rule="evenodd" d="M7.847 14.1a.692.692 0 011-.106L12 16.674l3.152-2.68a.692.692 0 011 .106.762.762 0 01-.1 1.042l-3.603 3.062a.689.689 0 01-.898 0l-3.602-3.062a.762.762 0 01-.102-1.042zM6.218 15.012c.393 0 .71.332.71.74v7.507c0 .41-.317.74-.71.74-.393 0-.71-.33-.71-.74v-7.506c0-.41.317-.74.71-.74zM17.592 15.012c.393 0 .711.332.711.74v7.507c0 .41-.318.74-.71.74-.393 0-.712-.33-.712-.74v-7.506c0-.41.319-.74.711-.74z" fill="#000"/><path fill-rule="evenodd" clip-rule="evenodd" d="M9.895.701a.715.715 0 01.816.612l.758 4.84c.064.403-.2.784-.587.85a.715.715 0 01-.816-.612l-.758-4.84c-.063-.403.2-.784.587-.85zM13.412.941s.924.052.853.455l-.853 4.84a.714.714 0 01-.827.594c-.387-.074-.642-.46-.571-.862l.853-4.84c.07-.402.545-.187.545-.187z" fill="#29D305"/><path fill-rule="evenodd" clip-rule="evenodd" d="M4.844 6.272c0-.41.318-.741.71-.741h12.797c.392 0 .71.332.71.74 0 .41-.318.741-.71.741H5.555c-.393 0-.711-.331-.711-.74z" fill="#29D305"/><path fill-rule="evenodd" clip-rule="evenodd" d="M12 16.889c.393 0 .71.332.71.74v5.63c0 .41-.317.741-.71.741-.393 0-.711-.332-.711-.74v-5.63c0-.41.318-.741.71-.741z" fill="#000"/><path fill-rule="evenodd" clip-rule="evenodd" d="M10.235 2.011a1.22 1.22 0 01-.42.3l-.004.001c-1.528.67-2.503 2.173-2.503 4.058 0 .41-.318.297-.71.297-.393 0-.712.112-.712-.297 0-2.42 1.259-4.447 3.274-5.378.026-.086.073-.22.17-.356.21-.3.528-.443.864-.521C10.53.037 10.988 0 11.621 0c.635 0 1.1.037 1.446.113.345.075.65.205.874.456a1.254 1.254 0 01.252.43c2.023.945 3.162 2.983 3.162 5.371 0 .41-.413.297-.805.297-.393 0-.616.112-.616-.297 0-1.911-.903-3.397-2.409-4.058a1.186 1.186 0 01-.615-.664l-.022-.055a1.118 1.118 0 00-.113-.03c-.205-.045-.557-.082-1.154-.082-.6 0-.935.038-1.118.08a1.114 1.114 0 00-.023.006 1.151 1.151 0 01-.245.444zm2.707-.396h-.001z" fill="#29D305"/></svg>
